Sources/FrostedUI/Resources/Icons.xcassets/heading12.imageset/heading-12.svg

<svg width="12" height="12" viewBox="0 0 12 12" fill="none" xmlns="http://www.w3.org/2000/svg" data-fui-icon="true">
  <path
    d="M1 1.78947C1 1.35346 1.35346 1 1.78947 1H3.89474C4.33075 1 4.68421 1.35346 4.68421 1.78947C4.68421 2.22549 4.33075 2.57895 3.89474 2.57895H3.63158V5.21053H8.36842V2.57895H8.10526C7.66925 2.57895 7.31579 2.22549 7.31579 1.78947C7.31579 1.35346 7.66925 1 8.10526 1H10.2105C10.6465 1 11 1.35346 11 1.78947C11 2.22549 10.6465 2.57895 10.2105 2.57895H9.94737V9.42105H10.2105C10.6465 9.42105 11 9.77451 11 10.2105C11 10.6465 10.6465 11 10.2105 11H8.10526C7.66925 11 7.31579 10.6465 7.31579 10.2105C7.31579 9.77451 7.66925 9.42105 8.10526 9.42105H8.36842V6.78947H3.63158V9.42105H3.89474C4.33075 9.42105 4.68421 9.77451 4.68421 10.2105C4.68421 10.6465 4.33075 11 3.89474 11H1.78947C1.35346 11 1 10.6465 1 10.2105C1 9.77451 1.35346 9.42105 1.78947 9.42105H2.05263V2.57895H1.78947C1.35346 2.57895 1 2.22549 1 1.78947Z"
    fill="currentColor"
  />
</svg>

<svg xmlns="http://www.w3.org/2000/svg" width="12" height="12" fill="none" data-fui-icon="true" viewBox="0 0 12 12"><path fill="currentColor" d="M1 1.79A.79.79 0 0 1 1.79 1h2.105a.79.79 0 0 1 0 1.579h-.263v2.632h4.736V2.579h-.263a.79.79 0 0 1 0-1.579h2.105a.79.79 0 0 1 0 1.579h-.263V9.42h.264a.79.79 0 0 1 0 1.579H8.105a.79.79 0 0 1 0-1.579h.263V6.789H3.632v2.632h.263a.79.79 0 1 1 0 1.579H1.789a.79.79 0 0 1 0-1.579h.264V2.579h-.264A.79.79 0 0 1 1 1.789"/></svg>
